X:4
T:Stakkars Per (simplified)
R:polka
Z:2001 Brian Wilson <baab@mediaone.net>
M:2/4
L:1/8
K:G
||: "G"Bd/B/ "G/D"GG | "G"Bd/B/ "G/D"GB | "D"A>B "C"ce | "C/G"ed "D"dc
| "G"Bd/B/ "G/D"GG | "G"Bd/B/ "G/D"GB | "D"A>B "D/A"c/A/F/A/
|1 "G"G2- "D"Gd :|2 "G"G2- "D"GD |
|: "G"G>G "G/D"GA |  "G"B>B "G/D"BG | "C"c>c "C/E"ce | "G"ed "D"dB
| "G"G>G "G/D"GA |  "G"B>B "G/D"BG | "D"A>B "D/A"c/A/F/A/
|1 "G"G2- "D"GD :|2 "G"G2- "D"GB/d/ |
|: "G"g>g "G/D"gg | "D"f>f "D/A"ff | "C"e>f "C/E"ge | "G"ed "D"dB
| "Am"ce/c/ "D"Ac | "G"Bd/B/ "Em"GB | "D/A"A>B "D"c/A/F/A/
|1 "G"G2- "D"GB/d/ :|2 "G"G2- "D"Gd ||
